X:1
T:Work for the Lord Today
T:Work for the Lord Today
T:John Wesley Dennis
T:Jennie Wilson, 1904
T:Public Domain Courtesy of the Cyber Hymnal™
T:Public Domain Courtesy of the Cyber Hymnal™
C:John Wesley Dennis
Z:Public Domain
Z:Courtesy of the Cyber Hymnal™
%%score ( 1 2 ) ( 3 4 )
L:1/8
Q:1/4=105
M:4/4
K:Ab
V:1 treble 
V:2 treble 
V:3 bass 
V:4 bass 
V:1
 [CE]2 [CE]>[DF] [CA]2 [EA]>[EB] | [Ec]2 [DB]2 [CA]4 | [EA]2 [EA]>[EA] [Ec]2 [Ee]2 | [EB]6 z2 | %4
w: 1.~Hast- en a- way to the|har- vest field,|Work for the Lord to-|day;|
w: 2.~Hast- en, no long- er with|id- lers stand,|Work for the Lord to-|day;|
w: 3.~La- bor with those who have|borne the heat,|Work for the Lord to-|day;|
 [CE]2 [CE]>[DF] [CA]2 [EA]>[EB] | [_Gc]2 [Gc]2 [Fd]4 | [Ae]2 [EA]>[FB] [Ec]2 [DB]2 | [CA]6 z2 | %8
w: Go and with glad- ness the|sick- le wield,|Work for the Lord to-|day.|
w: Go and o- bey the di-|vine com- mand,|Work for the Lord to-|day.|
w: Rest in the eve will be|calm and sweet,|Work for the Lord to-|day.|
 [Ae]2 [Ae]>[Ad] [Ec]2 [Ec]>[EB] | [FA]2 [DF]2 [FA]4 | [EA]2 [CA]>[DB] [Ec]2 [EB]>[EB] | %11
w: Hast- en, the mo- ments are|speed- ing fast,|Soon will the time for your|
w: Out in the field where the|grain is white,|Ga- ther the sheaves that are|
w: Toil with the reap- ers till|dusk ap- pears,|Toil tho’ your eyes may grow|
 [Ec]2 [A=d]2 [Ge]4 | [Ae]2 [Ae]>[Ad] [Ec]2 [Ec]>[EB] | [FA]2 [FA]2 [Fd]4 | %14
w: toil be past;|Win the re- ward that doth|ev- er last,|
w: gold- en bright.|Fair will they shine in e-|ter- nal light,|
w: dim with tears,|Look to the rap- ture of|Hea- ven’s years,|
 [Ae]2 [EA]>[FB] [Ec]2 [DB]2 | [CA]6 z2 ||"^Refrain" e6 [Ac]2 | [EA]2 [EA]2 [Ec]4 | [FA]6 [EB]2 | %19
w: Work for the Lord to-|day.|Work, yes,|work to- day,|Work, yes,|
w: Work for the Lord to-|day.||||
w: Work for the Lord to-|day.||||
 [FA]2 [DF]2 !fermata![CE]2 [CE]>[DF] | [CA]2 [EA]>[EB] [Ec]2 [EA]>[EB] | [Ac]2 [Ac]2 [Ae]4 | %22
w: work to- day; Go and|la- bor with joy in the|har- vest field,|
w: |||
w: |||
 [Ae]2 [EA]>[FB] [Ec]2 [DB]2 | [CA]6 z2 |] %24
w: Work for the Lord to-|day!|
w: ||
w: ||
V:2
 x8 | x8 | x8 | x8 | x8 | x8 | x8 | x8 | x8 | x8 | x8 | x8 | x8 | x8 | x8 | x8 || (A2 A>A A2) x2 | %17
 x8 | x8 | x8 | x8 | x8 | x8 | x8 |] %24
V:3
 [A,,A,]2 [A,,A,]>[A,,A,] [A,,A,]2 [C,A,]>[E,G,] | A,2 [E,G,]2 [A,,A,]4 | %2
w: ~ ~ ~ ~ ~ ~|~ ~ ~|
 [A,,C]2 [A,,C]>[A,,C] [A,,A,]2 [C,A,]2 | [E,G,]6 z2 | %4
w: ~ ~ ~ ~ ~|~|
 [A,,A,]2 [A,,A,]>[A,,A,] [A,,A,]2 [C,A,]>[E,G,] | A,2 A,2 [D,A,]4 | %6
w: ~ ~ ~ ~ ~ ~|~ ~ ~|
 [A,,C]2 [C,A,]>[D,A,] [E,A,]2 [E,G,]2 | [A,,A,]6 z2 | [A,C]2 [A,C]>[A,B,] A,2 A,>[C,A,] | %9
w: ~ ~ ~ ~ ~|~|~ ~ ~ ~ ~ ~|
 [D,A,]2 [D,A,]2 [D,D]4 | [A,C]2 A,>A, A,2 [E,G,]>[E,G,] | A,2 [F,B,]2 [E,B,]4 | %12
w: ~ ~ ~|~ ~ ~ ~ ~ ~|~ ~ ~|
 [A,C]2 [A,C]>[A,B,] A,2 A,>[C,A,] | [D,A,]2 [D,A,]2 [D,B,]4 | %14
w: ~ ~ ~ ~ ~ ~|~ ~ ~|
 [A,,C]2 [C,A,]>[D,A,] [E,A,]2 [E,G,]2 | [A,,A,]6 z2 || C6 [E,A,]2 | [C,A,]2 [E,C]2 A,4 | %18
w: ~ ~ ~ ~ ~|~|Work for|the Lord, yes,|
 [F,C]2 [F,C]>[F,C] [F,C]2 [C,A,]2 | [D,A,]2 [D,A,]2 !fermata![A,,A,]2 [A,,A,]>[A,,A,] | %20
w: work to- day, Work for|the Lord, yes, * *|
 [A,,A,]2 [C,A,]>[E,G,] A,2 [A,C]>[A,D] | [A,E]2 [A,E]2 [A,C]4 | %22
w: ||
 [A,C]2 [C,A,]>[D,A,] [E,A,]2 [E,G,]2 | [A,,A,]6 z2 |] %24
w: ||
V:4
 x8 | A,2 x6 | x8 | x8 | x8 | A,2 A,2 x4 | x8 | x8 | x4 A,2 A,3/2 x/ | x8 | x2 A,>A, A,2 x2 | %11
 A,2 x6 | x4 A,2 A,3/2 x/ | x8 | x8 | x8 || A,2 A,>A, A,2 x2 | x4 A,4 | x8 | x8 | x4 A,2 x2 | x8 | %22
 x8 | x8 |] %24

